!!!OTL: WER HOFFAHRT TREIBT MIT FREMDEN GUT
!!!ARE: Europa, Mitteleuropa, Deutschland
!!!SCT: E1176
!!!YEM: Copyright 1995, estate of Helmut Schaffrath.
**kern
*ICvox
*Ivox
*M4/4
*k[b-]
*F:
{4cc
4dd
4dd
=1
4cc
4a
4b-
4g
=2
2f
4r}
{4ff
=3
4ee
4dd
4cc
4b-
=4
2cc
2dd
=5
1cc
=6
4r}
{4cc
4dd
4dd
=7
4cc
4a
4b-
4g
=8
2f
4r}
{4ff
=9
4ee
4dd
4cc
4b-
=10
2cc
2dd
=11
1cc
=12
4r}
{4cc
4ff
4ff
=13
4ee
4cc
4dd
4b-
=14
2a
4r}
{4cc
=15
4a
4b-
4cc
4f
=16
2g
2f
=17
4r}
{4f
4a
4b-
=18
4cc
4b-
4dd
4ee
=19
2ff
4r}
{4f
=20
4f
4cc
4a
4f
=21
2cc
2dd
=22
1cc
=23
4r}
==
!!!AGN: Zech -, Spott - Lied
!!!ONB: ESAC (Essen Associative Code) Database: ERK3
!!!AMT: simple quadruple
!!!AIN: vox
!!!EED: Helmut Schaffrath
!!!EEV: 1.0
*-
